X:1
T:Title
%%score ( 1 2 ) ( 3 4 )
L:1/8
M:3/4
K:Ab
V:1 treble nm="Grand Piano"
V:2 treble 
V:3 bass nm="Grand Piano"
V:4 bass 
V:1
 z2 z[Q:1/4=82] [CE] [DF][CE] | [CA]3 [B,G] [DB][CA] | [Ec]3 [Fd] [Ec][C=A] | [DB]3 [Ec] [DB][DE] | %4
[M:3/8] [CA]3 | [CE][DF][CE] |[M:3/4] [CA]3 [B,G] [DB][CA] | [Ec]3 [E_Ge] [F=d][Gc] | %8
 [GB]3 [EG] [CA][=DF] |[M:3/8] E3 | [DE][DF][DE] |[M:3/4] [DB]3 [DF] [DG][DE] | %12
 [CA]3 [CA] [DB][CA] | [Fd]3 [Ec] [=Dc][DB] |[M:13/16] e/-e/-e/-e-<e z/ z/ z/ z/ z | %15
[M:3/4] [Ec]3 [_GA] [GB][GA] | [Fd]3 [DF] [EG][DF] | %17
 [CE]3 [EA] [=DF][_DG][Q:1/4=81][Q:1/4=80][Q:1/4=78][Q:1/4=77][Q:1/4=76][Q:1/4=75][Q:1/4=74][Q:1/4=72] | %18
[M:7/16] A/-A/-A/-A-<A[Q:1/4=71][Q:1/4=70][Q:1/4=69][Q:1/4=68][Q:1/4=66][Q:1/4=65][Q:1/4=64][Q:1/4=63] |] %19
V:2
 x6 | x6 | x6 | x6 |[M:3/8] x3 | x3 |[M:3/4] x6 | x6 | x6 |[M:3/8] x3 | x3 |[M:3/4] x6 | x6 | x6 | %14
[M:13/16] EFG3/2[Ge][Af][Ge] |[M:3/4] x6 | x6 | x6 |[M:7/16] CDC3/2 |] %19
V:3
 z6 | z [A,,E,] .[A,,E,]2 z2 | z [A,,A,] .[A,,A,]2 z2 | z [E,G,] .[E,G,]2 z2 | %4
[M:3/8] z [A,,E,][A,,E,] | z3 |[M:3/4] z [A,,E,] .[A,,E,]2 z2 | z [A,,A,] .[A,,A,]2 z2 | %8
 z [E,B,] .[E,B,]2 z2 |[M:3/8] z [E,G,][E,G,] | z3 |[M:3/4] [E,G,][E,G,] .[E,G,]2 z2 | %12
 [A,,E,][A,,E,] .[A,,E,]2 z2 | [D,A,][D,A,] .[D,A,]2 z2 | %14
[M:13/16] [E,G,][E,A,][E,B,]3/2 z/ z/ z/ z/ z |[M:3/4] A,A, .A,2 z [C,A,] | %16
 [D,A,][D,A,] .[D,A,]2 z [D,A,] | [E,A,][E,A,] [E,A,][C,A,] [B,,A,]E, |[M:7/16] E,F,E,3/2 |] %19
V:4
 x6 | x6 | x6 | x6 |[M:3/8] x3 | x3 |[M:3/4] x6 | x6 | x6 |[M:3/8] x3 | x3 |[M:3/4] x6 | x6 | x6 | %14
[M:13/16] x13/2 |[M:3/4] x6 | x6 | x6 |[M:7/16] A,,/-A,,/-A,,/-A,,-<A,, |] %19

